X:1
T:Title
%%score { ( 1 3 ) | 2 }
L:1/8
Q:1/4=114
M:4/4
K:Ab
V:1 treble nm="Grand Piano"
V:3 treble 
V:2 bass 
V:1
 [Ec]2 [Ec]2 [Fd]2 [Fd]2 | [Ec]2 [=D_c]2 [E=c]2 [CA]2 | G2 A2 B3 E | [CA]2 [DB]2 [Ec]4 | %4
w: Asa~Hull * * *||||
 [Ec]2 [Ec]2 [Fd]2 [Fd]2 | [Ec]2 [=D_c]2 [E=c]2 [CA]2 | G2 A2 B3 A |[M:7/8] c2 B2 [CA]3 | %8
w: ||||
[M:1/4] z2 |[M:4/4] c6 B2 | F6 z2 | [CE]2 [CA]2 [DB]3 [DE] |[M:7/8] [CA]2 [DB]2 [Ec]3 |[M:1/4] z2 | %14
w: ||||||
[M:4/4] c2- [Ec-]>[Ec-] [Ec]2 B>A | F6 z2 | E2 G>A B2 B2 | [CA]6 [Ec]2 | [Fd]4 [Fd]4 | %19
w: |||||
 [Ec]6 [CA]2 |[M:6/4] [DB]6 [DB]6 |[M:4/4] [CA]8 |] %22
w: |||
V:2
 [A,,A,]2 [A,,A,]2 [A,,A,]2 [A,,A,]2 | [A,,A,]2 [A,,A,]2 [A,,A,]2 [A,,A,]2 | %2
 [E,B,]2 [E,A,C]2 [E,G,D]3 [E,G,D] | [A,,A,]2 [A,,A,]2 [A,,A,]4 | %4
 [A,,A,]2 [A,,A,]2 [A,,A,]2 [A,,A,]2 | [A,,A,]2 [A,,A,]2 [A,,A,]2 [A,,A,]2 | %6
 [E,B,]2 [E,A,C]2 [E,G,D]3 [E,A,C] |[M:7/8] [E,A,E]2 [E,G,D]2 [A,,A,]3 |[M:1/4] [E,E]2 | %9
[M:4/4] [A,,A,]2 [A,,A,]>[A,,A,] [A,,A,]2 [C,A,]2 | [D,A,D]2 [D,A,]>[D,A,] [D,A,]2 [D,A,D]2 | %11
 [A,,A,]2 [A,,A,]2 [E,G,]3 [E,G,] |[M:7/8] [A,,A,]2 [A,,A,]2 [A,,A,]3 |[M:1/4] [E,E]2 | %14
[M:4/4] [A,,A,]2 [A,,A,]>[A,,A,] [A,,A,]2 [C,A,]2 | [D,A,D]2 [D,A,]>[D,A,] [D,A,]2 [D,D]>[D,A,D] | %16
 [E,A,C]2 [E,B,]>[E,A,C] [E,G,D]2 [E,G,D]2 | [A,,A,]6 [A,,A,]2 | [A,,A,]4 [A,,A,]4 | %19
 [A,,A,]6 [A,,A,]2 |[M:6/4] [E,G,]6 [E,G,]6 |[M:4/4] [A,,E,A,]8 |] %22
V:3
 x8 | x8 | x8 | x8 | x8 | x8 | x8 |[M:7/8] x7 |[M:1/4] x2 |[M:4/4] E2 E>E E2 E->[EA] | %10
 z2 D>D D2 F2 | x8 |[M:7/8] x7 |[M:1/4] x2 |[M:4/4] E2 z2 z2 E2 | z2 D>D D2 [FA]>F | x8 | x8 | x8 | %19
 x8 |[M:6/4] x12 |[M:4/4] x8 |] %22

